-----BEGIN PGP PUBLIC KEY BLOCK-----

mQGNBGqtqoMBDADVSx6liEPFr85h5d8gSb6wk2VNg02EewV2PPRq8tBwdYBFVca
linwPQ0yW3FfSREBJ3atArL8aD+WJ4omucWj58gGvV1UdFcCgQ/Lag4qYXAGX2nX
KXccOmIz1FzL9i6NTNtXvXjOMiAtJyHhx+GXDAZwr40zfBHIXjZ8PJ5eRPLUTZ
HMxQHab2z8RgEj50l0Ny69ieMTJ7bhVIZNuGgmQA1VA/B2AcuV6S++B/y75ADb
dm3Bx/Qnw7oE7Rxiol8mzchF9hZdwIO9bw46011gbLKXsNVFuXbn3K/DgC6vK4YU
Ojkolyp6+UT2GE4/s1krPRZ6ywhundIUTEQLIzywJ9Y009I2NJAiWvTHVie6Ulxk
aaxwd6ocbsrQS+ARXnLyBPD2TLKlzNrnw2R57NpGeHtRdnv+iSlY9y9vLC2rA3
js6K3JmTJf8/Aby1EaonJAGdQB39clrgKP1Rao9y2CmriJg6ilwxpAW3zWqNYHpy
j7bpv15givfonQsAEQEAAbQaUGVhdGVyXzNwnpdHN53hDACbIsTIsXiQ2qYtHTGYpC9
EwEIAWSwIQS5Z9OnGu0ODBr7YiA52QA03stb5wUCAq2qqwIbAWULCQqHAgIiAgYV
CgKICwIEFgIDAQEBWixGAAKCRA52QA03stb5w3hDACbIsTIsXiQ2qYtHTGYpC9
rHr0n5h/1EiD01Vp5LLV3uD+jtOm04WardXpmzJ18nTye23Q5emFmDmM036kPqAN
yQ80uAkjv26EyeZiGUBOANTttIJ6GFLUKLY7V1N4HFYeL1zvfqLuewXPYCEsL8qh
47C7zRAfHngAag6YrKDbh06bwpf/iDiVSvN3zc29nV31/AoJ0ayHMLN1/k5R5xld
tu5axa06vd4FQ2+PN9jm33+k45os3mPo971x2PXLLTGbeMnDK9kCC0IIRp5v76T9
uTDGD/mdEzI0qdIls6BV947cv1BdNW8DOHnODMks4301T2AgTYN6VNQ161ANiKyG
YblqKa24gWUIBBH9tspJW5NLMQexxBC1GAYthcImQ1K5E2/AZcfxdFDERn7qJWZ6
sLERx406t459rzSgXU/7DQXpZ85PE5nfjgK92Kq60Wg40ELikeK3KVL5c9x32Fmr
0ZCMXaTKzhFCZvWGA5xoFbHrSa8FP7RkuwyC2ZgImpc=
=QeUj
-----END PGP PUBLIC KEY BLOCK-----
